symbols/web/sell/materialsymbolsoutlined/sell_wght200grad200fill1_24px.svg

<svg xmlns="http://www.w3.org/2000/svg" height="24" width="24"><path d="M12.85 21.8q-.325 0-.625-.125t-.55-.375l-9-8.95q-.25-.25-.363-.563-.112-.312-.112-.637v-7.3q0-.7.475-1.175Q3.15 2.2 3.85 2.2h7.3q.325 0 .625.125t.55.375l9 8.925q.5.5.5 1.187 0 .688-.525 1.188L14 21.3q-.225.25-.525.375-.3.125-.625.125ZM6.4 7.7q.55 0 .938-.388.387-.387.387-.937t-.387-.937Q6.95 5.05 6.4 5.05q-.55 0-.937.388-.388.387-.388.937t.388.937q.387.388.937.388Z"/></svg>

<svg xmlns="http://www.w3.org/2000/svg" height="24" width="24"><path d="M12.85 21.8Q12.525 21.8 12.225 21.675Q11.925 21.55 11.675 21.3L2.675 12.35Q2.425 12.1 2.312 11.787Q2.2 11.475 2.2 11.15V3.85Q2.2 3.15 2.675 2.675Q3.15 2.2 3.85 2.2H11.15Q11.475 2.2 11.775 2.325Q12.075 2.45 12.325 2.7L21.325 11.625Q21.825 12.125 21.825 12.812Q21.825 13.5 21.3 14L14 21.3Q13.775 21.55 13.475 21.675Q13.175 21.8 12.85 21.8ZM6.4 7.7Q6.95 7.7 7.338 7.312Q7.725 6.925 7.725 6.375Q7.725 5.825 7.338 5.438Q6.95 5.05 6.4 5.05Q5.85 5.05 5.463 5.438Q5.075 5.825 5.075 6.375Q5.075 6.925 5.463 7.312Q5.85 7.7 6.4 7.7Z"/></svg>
